Yaru++/actions/16/media-import-audio-cd.svg

<svg height="16" width="16" xmlns="http://www.w3.org/2000/svg">
  <g fill="#808080">
    <g transform="translate(-272 -160)">
      <path d="m280 165a3 3 0 0 0 -3 3 3 3 0 0 0 3 3 3 3 0 0 0 3-3 3 3 0 0 0 -3-3zm0 1.5a1.5 1.5 0 0 1 1.5 1.5 1.5 1.5 0 0 1 -1.5 1.5 1.5 1.5 0 0 1 -1.5-1.5 1.5 1.5 0 0 1 1.5-1.5z"/>
      <path d="m8 0a8 8 0 0 0 -8 8 8 8 0 0 0 8 8 8 8 0 0 0 1.3554688-.125v-1.013672a7 7 0 0 1 -1.3554688.138672 7 7 0 0 1 -7-7 7 7 0 0 1 7-7 7 7 0 0 1 7 7 7 7 0 0 1 -.636719 2.898438h1.09375a8 8 0 0 0 .542969-2.898438 8 8 0 0 0 -8-8z" transform="translate(272 160)"/>
    </g>
    <path d="m12 8v4 2.03125l-1.34375-1.4375-.65625.6875 2.3125 2.5.1875.21875.1875-.21875 2.3125-2.5-.65625-.6875-1.34375 1.4375v-2.03125-4z"/>
  </g>
</svg>

<?xml version="1.0" encoding="UTF-8" standalone="no"?>
<svg
   xmlns:dc="http://purl.org/dc/elements/1.1/"
   xmlns:cc="http://creativecommons.org/ns#"
   xmlns:rdf="http://www.w3.org/1999/02/22-rdf-syntax-ns#"
   xmlns:svg="http://www.w3.org/2000/svg"
   xmlns="http://www.w3.org/2000/svg"
   xmlns:sodipodi="http://sodipodi.sourceforge.net/DTD/sodipodi-0.dtd"
   xmlns:inkscape="http://www.inkscape.org/namespaces/inkscape"
   width="16"
   height="16"
   version="1.1"
   id="svg8"
   sodipodi:docname="1.svg"
   inkscape:version="0.92.3 (2405546, 2018-03-11)">
  <metadata
     id="metadata14">
    <rdf:RDF>
      <cc:Work
         rdf:about="">
        <dc:format>image/svg+xml</dc:format>
        <dc:type
           rdf:resource="http://purl.org/dc/dcmitype/StillImage" />
        <dc:title></dc:title>
      </cc:Work>
    </rdf:RDF>
  </metadata>
  <defs
     id="defs12" />
  <sodipodi:namedview
     pagecolor="#ffffff"
     bordercolor="#808080"
     borderopacity="1"
     objecttolerance="10"
     gridtolerance="10"
     guidetolerance="10"
     inkscape:pageopacity="0"
     inkscape:pageshadow="2"
     inkscape:window-width="1920"
     inkscape:window-height="1009"
     id="namedview10"
     showgrid="false"
     inkscape:zoom="14.75"
     inkscape:cx="8"
     inkscape:cy="8"
     inkscape:window-x="0"
     inkscape:window-y="34"
     inkscape:window-maximized="1"
     inkscape:current-layer="svg8" />
  <g
     transform="translate(-272,-160)"
     id="g6">
    <path
       d="m 280,165 a 3,3 0 0 0 -3,3 3,3 0 0 0 3,3 3,3 0 0 0 3,-3 3,3 0 0 0 -3,-3 z m 0,1.5 a 1.5,1.5 0 0 1 1.5,1.5 1.5,1.5 0 0 1 -1.5,1.5 1.5,1.5 0 0 1 -1.5,-1.5 1.5,1.5 0 0 1 1.5,-1.5 z"
       style="fill:#808080"
       id="path2" />
    <path
       style="fill:#808080"
       d="M 8 0 A 8 8 0 0 0 0 8 A 8 8 0 0 0 8 16 A 8 8 0 0 0 9.3554688 15.875 L 9.3554688 14.861328 A 7 7 0 0 1 8 15 A 7 7 0 0 1 1 8 A 7 7 0 0 1 8 1 A 7 7 0 0 1 15 8 A 7 7 0 0 1 14.363281 10.898438 L 15.457031 10.898438 A 8 8 0 0 0 16 8 A 8 8 0 0 0 8 0 z "
       transform="translate(272,160)"
       id="path4" />
  </g>
  <path
     class="ColorScheme-Text"
     d="m 12,8 v 4 2.03125 L 10.65625,12.59375 10,13.28125 l 2.3125,2.5 L 12.5,16 12.6875,15.78125 15,13.28125 14.34375,12.59375 13,14.03125 V 12 8 Z"
     id="path5"
     inkscape:connector-curvature="0"
     style="color:#808080;fill:#808080"
     sodipodi:nodetypes="cccccccccccccc" />
</svg>
